X: 27802
T: Morrison's
R: jig
M: 6/8
K: Edorian
|:"Em"~E3 ~B3|EBE "D"AFD|"Em"~E3 ~B3|"G"d2B "D"AFD|
"Em"~E3 ~B3|EBE "D"AFD|"C"~G3 FGA|"D"dAG FED:|
|:"Em"Bee fee|aee fed|Bee fee|"D"fag fed|
[1 "Em"Bee fee|aee fed|"C"gfe d2A|"D"BAG FED:|2
"C"g2g gfe|"G"def g2d|"D"edc d2A|"C"BAG "D"FED||

